src/assets/svg/playlist-icon.svg

<svg width="102" height="172" viewBox="0 0 102 172" fill="none" xmlns="http://www.w3.org/2000/svg">
<rect x="0.25" width="101" height="101" rx="8" fill="#FF9785"/>
<rect opacity="0.8" x="0.25" y="109" width="101" height="12.12" fill="#FF9785"/>
<path opacity="0.3" d="M5.1371 129.12C2.42883 129.12 0.25 131.339 0.25 134.097V144.051C0.25 146.81 2.42883 149.029 5.1371 149.029H14.9113C17.6196 149.029 19.7984 146.81 19.7984 144.051V134.097C19.7984 131.339 17.6196 129.12 14.9113 129.12H5.1371ZM36.0887 132.438C32.4845 132.438 29.5726 135.404 29.5726 139.074C29.5726 142.745 32.4845 145.711 36.0887 145.711H94.7339C98.3381 145.711 101.25 142.745 101.25 139.074C101.25 135.404 98.3381 132.438 94.7339 132.438H36.0887ZM36.0887 165.619C32.4845 165.619 29.5726 168.585 29.5726 172.255C29.5726 175.926 32.4845 178.892 36.0887 178.892H94.7339C98.3381 178.892 101.25 175.926 101.25 172.255C101.25 168.585 98.3381 165.619 94.7339 165.619H36.0887ZM36.0887 198.8C32.4845 198.8 29.5726 201.766 29.5726 205.437C29.5726 209.107 32.4845 212.073 36.0887 212.073H94.7339C98.3381 212.073 101.25 209.107 101.25 205.437C101.25 201.766 98.3381 198.8 94.7339 198.8H36.0887ZM0.25 167.278V177.233C0.25 179.991 2.42883 182.21 5.1371 182.21H14.9113C17.6196 182.21 19.7984 179.991 19.7984 177.233V167.278C19.7984 164.52 17.6196 162.301 14.9113 162.301H5.1371C2.42883 162.301 0.25 164.52 0.25 167.278ZM5.1371 195.482C2.42883 195.482 0.25 197.701 0.25 200.459V210.414C0.25 213.172 2.42883 215.391 5.1371 215.391H14.9113C17.6196 215.391 19.7984 213.172 19.7984 210.414V200.459C19.7984 197.701 17.6196 195.482 14.9113 195.482H5.1371Z" fill="#FF9785"/>
</svg>

<svg fill="none" viewBox="0 0 102 172">
  <rect width="101" height="101" x=".25" fill="currentColor" rx="8"/>
  <path fill="currentColor" d="M.25 109h101v12.12H.25z" opacity=".8"/>
  <path fill="currentColor" d="M5.137 129.12c-2.708 0-4.887 2.219-4.887 4.977v9.954c0 2.759 2.179 4.978 4.887 4.978h9.774c2.709 0 4.887-2.219 4.887-4.978v-9.954c0-2.758-2.178-4.977-4.887-4.977H5.137Zm30.952 3.318c-3.605 0-6.516 2.966-6.516 6.636 0 3.671 2.911 6.637 6.516 6.637h58.645c3.604 0 6.516-2.966 6.516-6.637 0-3.67-2.912-6.636-6.516-6.636H36.089Zm0 33.181c-3.605 0-6.516 2.966-6.516 6.636 0 3.671 2.911 6.637 6.516 6.637h58.645c3.604 0 6.516-2.966 6.516-6.637 0-3.67-2.912-6.636-6.516-6.636H36.089Zm0 33.181c-3.605 0-6.516 2.966-6.516 6.637 0 3.67 2.911 6.636 6.516 6.636h58.645c3.604 0 6.516-2.966 6.516-6.636 0-3.671-2.912-6.637-6.516-6.637H36.089ZM.25 167.278v9.955c0 2.758 2.179 4.977 4.887 4.977h9.774c2.709 0 4.887-2.219 4.887-4.977v-9.955c0-2.758-2.178-4.977-4.887-4.977H5.137c-2.708 0-4.887 2.219-4.887 4.977Zm4.887 28.204c-2.708 0-4.887 2.219-4.887 4.977v9.955c0 2.758 2.179 4.977 4.887 4.977h9.774c2.709 0 4.887-2.219 4.887-4.977v-9.955c0-2.758-2.178-4.977-4.887-4.977H5.137Z" opacity=".3"/>
</svg>
